X: 1740
T: Serapa Hüsn ü Ansın
C: Rahmi Bey
O: Turkey
F: http://compmusic.upf.edu/node/140
N: muhayyer--sarki--aksak--serapa_husn--rahmi_bey
N: makam= muhayyer
N: form= sarki
N: usul= aksak = 9/8
M: 9/8
L: 1/16
K: C _2/4B ^3/4f  
Q: 1/4=144
%%MIDI tuningsystem comma53
fgab c'2ba aggf ag^2/4fe d2 | fg abc'2 baag fga4z2  | 
w:  ARANAĞME  |   | 
fgab c'2ba agg=f feed dc | Bc de=fe dccB BAA4z2  | 
w:   |   | 
fgab c'2ba aggf ag^2/4fe d2 | fg abc'2 baag fga4z2  | 
w:  ARANAĞME  |   | 
fgab c'2ba agg=f feed dc | Bc de=fe dccB BAA4z2  | 
w:   |   | 
g2g4a2 a2b2 c'2b2 a2 | a2 c'2b2 a2g2 f2e4f2  | \
w:  Se ra *  pa  *  hüsn_  |  ü  *  an *  sın  *  dil  | 
d2e4f2 d4 e2f2 g2 | 
w:  si tan *  sın  naz   | 
a2 gfa2 {c'}baa4ed cBA2  | g2g4a2 a2b2 c'2b2 a2 | \
w:  per *  *  ver *  *  *  sin   SAZ  |  Se ra *  pa  *  hüsn_  | 
a2 c'2b2 a2g2 f2e4f2  | 
w:  ü  *  an *  sın  *  dil  | 
d2e4f2 d4 e2f2 g2 | a2 gfa2 {c'}baa4de fga2  | \
w:  si tan *  sın  naz   |  per *  *  ver *  *  *  sin   SAZ  | 
g2a2 g2^1/4f2 e2f2 g2e2 d2 | 
w:  Ci van_ *  *  ı  *  mih  | 
c2 e2d2 c2c2 BAA6  | G2A2 B2c2 d2e2 c2BA G2 | \
w:  ri ban *  *  sın  *  *  şuh  |  sun  *  *  *  nâ *  zen  | 
=fe d2d3ccB BAA6  | 
w:  de  *  dil *  *  ber *  *  *  sin    | 
g2a2 g2^1/4f2 e2f2 g2e2 d2 | c2 e2d2 c2c2 BAA6  | \
w:  Ci van_ *  *  ı  *  mih  |  ri ban *  *  sın  *  *  şuh  | 
G2A2 B2c2 d2e2 c2BA G2 | 
w:  sun  *  *  *  nâ *  zen  | 
=fe d2d3ccB BAA6  | d2_3/4e4d2 d2{f}ed dede dc | 
w:  de  *  dil *  *  ber *  *  *  sin    |  Na zî *  rin  *  *  *  yok   | 
_2/4e2 dcc3Bc2 BAA6  | G2A2 B2c2 d2e2 f2g2 a2 | \
w:  ci han *  *  *  da  *  *  hüsn_  |  i *  le  *  mihr   | 
g2 a2g2 f2a2 {c'}baa4z2  | 
w:  mü nev *  *  ver *  *  *  sin    | 
g2a2 g2^1/4f2 e2f2 g2e2 d2 | c2 e2d2 c2c2 BAA6  | \
w:  Ci van_ *  *  ı  *  mih  |  ri ban *  *  sın  *  *  şuh  | 
G2A2 B2c2 d2e2 c2BA G2 | 
w:  sun  *  *  *  nâ *  zen  | 
=fe d2d3ccB BAA6  | g2a2 g2^1/4f2 e2f2 g2e2 d2 | \
w:  de  *  dil *  *  ber *  *  *  sin    |  Ci van_ *  *  ı  *  mih  | 
c2 e2d2 c2c2 BAA6  | 
w:  ri ban *  *  sın  *  *  şuh  | 
G2A2 B2c2 d2e2 c2BA G2 | =fe d2d3ccB BAA6  | |


